svg/sim_outline.svg

<svg xmlns="http://www.w3.org/2000/svg" viewBox="0 0 24 24"><path d="M18 4v16H6V8.8L10.8 4zm0-2h-8L4 8v12c0 1.1.9 2 2 2h12c1.1 0 2-.9 2-2V4c0-1.1-.9-2-2-2M9.5 19h-2v-2h2zm7 0h-2v-2h2zm-7-4h-2v-4h2zm3.5 4h-2v-4h2zm0-6h-2v-2h2zm3.5 2h-2v-4h2z"/></svg>

<?xml version="1.0" encoding="UTF-8"?><!DOCTYPE svg PUBLIC "-//W3C//DTD SVG 1.1//EN" "http://www.w3.org/Graphics/SVG/1.1/DTD/svg11.dtd"><svg xmlns="http://www.w3.org/2000/svg" xmlns:xlink="http://www.w3.org/1999/xlink" version="1.1" id="mdi-sim-outline" width="24" height="24" viewBox="0 0 24 24"><path d="M18 4V20H6V8.8L10.8 4H18M18 2H10L4 8V20C4 21.1 4.9 22 6 22H18C19.1 22 20 21.1 20 20V4C20 2.9 19.1 2 18 2M9.5 19H7.5V17H9.5V19M16.5 19H14.5V17H16.5V19M9.5 15H7.5V11H9.5V15M13 19H11V15H13V19M13 13H11V11H13V13M16.5 15H14.5V11H16.5V15Z" /></svg>
